actions/symbolic/object-select-symbolic.svg

<svg viewBox="0 0 16 16" xmlns="http://www.w3.org/2000/svg"><path d="m12.203125 3.4003906c-.20648 0-.380951.0722969-.525391.2167969l-5.0781246 5.0878906-2.2773438-2.2851562c-.14454-.14453-.3189906-.2167969-.5253906-.2167969-.20648 0-.3828138.0722969-.5273438.2167969l-1.0527343 1.0527343c-.14454.1445301-.2167969.3208538-.2167969.5273438 0 .20639.0722969.3829138.2167969.5273438l2.8027343 2.8007812 1.0527344 1.054687c.14443.144532.3208538.216797.5273438.216797.20639 0 .3808606-.072395.5253906-.216797l1.0527344-1.054687 5.6054686-5.6035156c.14444-.14453.216797-.3208638.216797-.5273438.00009-.2064-.072397-.3808506-.216797-.5253906l-1.052734-1.0546875c-.14444-.14454-.320944-.2167969-.527344-.2167969z" fill="#bebebe"/></svg>

<svg xmlns="http://www.w3.org/2000/svg" viewBox="0 0 16 16">
  <defs id="defs3051">
    <style type="text/css" id="current-color-scheme">
      .ColorScheme-Text {
        color:#bebebe;
      }
      </style>
  </defs>
 <path 
       style="fill:currentColor;fill-opacity:1;stroke:none"
	 class="ColorScheme-Text"
        d="M 12.203125 3.4003906 C 11.996645 3.4003906 11.822174 3.4726875 11.677734 3.6171875 L 6.5996094 8.7050781 L 4.3222656 6.4199219 C 4.1777256 6.2753919 4.003275 6.203125 3.796875 6.203125 C 3.590395 6.203125 3.4140612 6.2754219 3.2695312 6.4199219 L 2.2167969 7.4726562 C 2.0722569 7.6171863 2 7.79351 2 8 C 2 8.20639 2.0722969 8.3829138 2.2167969 8.5273438 L 5.0195312 11.328125 L 6.0722656 12.382812 C 6.2166956 12.527344 6.3931194 12.599609 6.5996094 12.599609 C 6.8059994 12.599609 6.98047 12.527214 7.125 12.382812 L 8.1777344 11.328125 L 13.783203 5.7246094 C 13.927643 5.5800794 14 5.4037456 14 5.1972656 C 14.00009 4.9908656 13.927603 4.816415 13.783203 4.671875 L 12.730469 3.6171875 C 12.586029 3.4726475 12.409525 3.4003906 12.203125 3.4003906 z "
     />
</svg>
